X:1
T:Title
%%score { ( 1 3 ) | ( 2 4 ) }
L:1/8
M:4/4
K:F
V:1 treble nm="Grand Piano"
V:3 treble 
V:2 bass 
V:4 bass 
V:1
 z4 z2 z[Q:1/4=94] A | A>A FG AA B>A | [Ec]2 [EG]2 [EG]3 [FA] | [GB][GB][GB][EG] E[Bd] [Ac]>[GB] | %4
 A6 z C | AAA[GB] [Ac]AGF | [CE][B,D][DG][DB] [Fd]3 [Fd] | [Fc][FA][Fc][F=B] [E_B][CE] [EA]>[EG] | %8
[M:3/4] F6 |[M:1/4] c2 |[M:4/4] c6 z2 | [FAc]2 [CFA]4 z2 | z [G,E][G,E][A,F] [B,G][CAc][EBd][CAc] | %13
 A6 z2 | A6 z2 | [Dd]2 [DB]4 d2 | c4 z4 | F8 |] %18
V:2
 z4 z2 z [F,CF] | [F,CF]>[F,CF] [F,A,C][F,B,C] [F,CF][F,CF] [F,DF]>[F,CF] | %2
 [C,C]2 [C,C]2 [C,C]3 [C,C] | [C,C][C,C][C,C][C,C] [C,C][C,C] [C,C]>[C,C] | [F,CF]6 z [F,A,] | %5
 [F,CF][F,CF][F,CF][F,C] [F,C][F,CF][F,B,C][F,A,C] | %6
 [B,,B,][B,,F,][B,,F,][B,,F,] [B,,B,]3 [=B,,_A,] | %7
 [C,A,][C,C][C,A,][C,_A,] [C,G,][C,G,] [C,C]>[C,B,] |[M:3/4] [F,A,]6 |[M:1/4] z2 | %10
[M:4/4] z [C,G,][C,G,][C,A,] [C,B,]C, C,>C, | F,2 F,4[K:treble] c2 | c6[K:bass] z2 | %13
 z A, .C2 A,2 z2 | z [F,C][F,D][F,C] [F,A,][F,F][F,G,E][F,A,_E] | [B,,B,]2 [B,,F,]4 z2 | %16
 z [C,A,][C,A,][C,_A,] [C,G,]2 C,2 | z A,B,B, A,4 |] %18
V:3
 x8 | x8 | x8 | x8 | x8 | x8 | x8 | x8 |[M:3/4] x6 |[M:1/4] x2 |[M:4/4] z EEF G[CAc] [EBd]>[EBc] | %11
 x8 | x8 | [CF]FED C2 F2 | z FFF FABc | x8 | z FF[F=B] [E_B]2 [B,CE]2 | [A,C]CDD C4 |] %18
V:4
 x8 | x8 | x8 | x8 | x8 | x8 | x8 | x8 |[M:3/4] x6 |[M:1/4] x2 |[M:4/4] x8 | x6[K:treble] x2 | %12
 z[K:bass] C,C,C, C,C,C,E, | F,6 z2 | x8 | x8 | x8 | F,,8 |] %18

